img/icons/bell.svg

<?xml version="1.0" encoding="UTF-8"?>
<svg width="22px" height="24px" viewBox="0 0 22 24" version="1.1" xmlns="http://www.w3.org/2000/svg" xmlns:xlink="http://www.w3.org/1999/xlink">
    <!-- Generator: Sketch 48.2 (47327) - http://www.bohemiancoding.com/sketch -->
    <title>bell</title>
    <desc>Created with Sketch.</desc>
    <defs></defs>
    <g id="job-listing" stroke="none" stroke-width="1" fill="none" fill-rule="evenodd" transform="translate(-548.000000, -902.000000)">
        <g id="email-notifications" transform="translate(548.000000, 902.000000)" fill="#000000" fill-rule="nonzero">
            <g id="bell">
                <path d="M22,21 L0,21 L0.00239536606,20.4885359 C0.0124559035,18.4197782 1.37733548,16.6472117 3.2404512,16.1947822 L3.2404512,10.2429689 C3.2404512,5.69780897 6.72091808,2 10.9995209,2 C15.2786028,2 18.7595488,5.69780897 18.7595488,10.2429689 L18.7595488,16.1947822 C20.6226645,16.6477206 21.987065,18.4197782 21.9976046,20.4885359 L22,21 Z M0.999346718,19.982161 L21.0006533,19.982161 C20.7812378,18.5022232 19.657332,17.314914 18.2220287,17.1271227 L17.8014024,17.0726683 L17.8014024,10.2429689 C17.8014024,6.25914716 14.7501851,3.01783897 10.9995209,3.01783897 C7.24933583,3.01783897 4.19859762,6.25914716 4.19859762,10.2429689 L4.19859762,17.0721594 L3.77797134,17.1266138 C2.34218893,17.3144051 1.21876225,18.5017143 0.999346718,19.982161 Z" id="Shape"></path>
                <path d="M9.83481165,3 L9,3 L9,2.4008016 C9,1.07665331 9.89700511,0 11.0002087,0 C12.1029949,0 13,1.07665331 13,2.4008016 L13,2.98997996 L12.1651884,2.98997996 L12.1651884,2.4008016 C12.1651884,1.62975952 11.6425963,1.00200401 11.0002087,1.00200401 C10.3578211,1.00200401 9.83481165,1.62975952 9.83481165,2.4008016 L9.83481165,3 Z" id="Shape"></path>
                <path d="M10.4933676,24 C8.80701754,24 7.33761232,22.4404513 7,20.2914055 L7.83825417,20.0685332 C8.09499358,21.7010726 9.21138211,22.8861958 10.4933676,22.8861958 C11.8018828,22.8861958 12.9225503,21.6720992 13.1583226,20 L14,20.2011422 C13.6897732,22.402563 12.2152332,24 10.4933676,24 Z" id="Shape"></path>
                <rect id="Rectangle-path" x="2" y="17" width="5" height="1"></rect>
                <rect id="Rectangle-path" x="10" y="17" width="10" height="1"></rect>
            </g>
        </g>
    </g>
</svg>

<svg xmlns="http://www.w3.org/2000/svg" width="22" height="24" viewBox="0 0 22 24"><path d="M22 21H0l.002-.511c.01-2.07 1.375-3.842 3.238-4.294v-5.952C3.24 5.698 6.72 2 11 2c4.279 0 7.76 3.698 7.76 8.243v5.952c1.863.453 3.227 2.225 3.238 4.294L22 21zM1 19.982h20c-.219-1.48-1.343-2.667-2.778-2.855l-.42-.054v-6.83c0-3.984-3.052-7.225-6.802-7.225-3.75 0-6.801 3.241-6.801 7.225v6.83l-.421.054c-1.436.187-2.56 1.375-2.779 2.855z"/><path d="M9.835 3H9v-.6C9 1.078 9.897 0 11 0s2 1.077 2 2.4v.59h-.835V2.4c0-.77-.522-1.398-1.165-1.398-.642 0-1.165.628-1.165 1.399V3zm.658 21C8.807 24 7.338 22.44 7 20.291l.838-.222c.257 1.632 1.373 2.817 2.655 2.817 1.309 0 2.43-1.214 2.665-2.886l.842.201C13.69 22.403 12.215 24 10.493 24zM2 17h5v1H2zm8 0h10v1H10z"/></svg>
